src/Assets/Cookie.svg

<svg width="53" height="18" viewBox="0 0 53 18" fill="none" xmlns="http://www.w3.org/2000/svg">
<path d="M10.7948 11.71C10.9161 11.5367 11.0894 11.2333 11.3148 10.8C11.8694 9.812 12.1988 9.318 12.3028 9.318C12.4241 9.318 12.4848 9.38733 12.4848 9.526C12.4848 10.3753 12.0428 11.45 11.1588 12.75C9.5641 15.09 7.44077 16.26 4.78877 16.26C4.04343 16.26 3.35877 16.0867 2.73477 15.74C2.11077 15.3933 1.61677 14.9513 1.25277 14.414C0.507432 13.322 0.134766 12.178 0.134766 10.982C0.134766 7.966 0.914766 5.53933 2.47477 3.702C4.0521 1.84733 5.91543 0.919999 8.06477 0.919999C8.87943 0.919999 9.54677 1.16267 10.0668 1.648C10.5868 2.116 10.8468 2.714 10.8468 3.442C10.8468 4.17 10.6648 4.846 10.3008 5.47C9.93677 6.094 9.49477 6.406 8.97477 6.406C8.4721 6.406 8.22077 6.26733 8.22077 5.99C8.22077 5.678 8.38543 5.32267 8.71477 4.924C9.06143 4.52533 9.23477 4.12667 9.23477 3.728C9.23477 2.49733 8.5761 1.882 7.25877 1.882C5.95877 1.882 4.7801 2.75733 3.72277 4.508C2.66543 6.25867 2.13677 8.06133 2.13677 9.916C2.13677 11.1987 2.50077 12.3427 3.22877 13.348C3.95677 14.336 4.97943 14.83 6.29677 14.83C7.85677 14.83 9.3561 13.79 10.7948 11.71ZM18.9876 10.358C19.6809 10.1327 20.1576 9.942 20.4176 9.786C20.6949 9.61267 20.9029 9.48267 21.0416 9.396L21.3536 9.214C21.4403 9.162 21.5096 9.136 21.5616 9.136C21.7003 9.136 21.7696 9.214 21.7696 9.37C21.7696 9.526 21.5009 9.80333 20.9636 10.202C20.4263 10.5833 19.7589 10.93 18.9616 11.242C18.8403 12.698 18.3809 13.8767 17.5836 14.778C16.7863 15.6793 15.6509 16.13 14.1776 16.13C13.1029 16.13 12.2796 15.7053 11.7076 14.856C11.1356 13.9893 10.8496 12.984 10.8496 11.84C10.8496 10.6787 11.1876 9.58667 11.8636 8.564C12.5569 7.54133 13.4409 7.03 14.5156 7.03C15.0009 6.68333 15.5729 6.51 16.2316 6.51C16.9076 6.51 17.5316 6.86533 18.1036 7.576C18.6756 8.28667 18.9703 9.214 18.9876 10.358ZM17.2976 11.684L16.3616 11.736C15.5643 11.736 14.8883 11.502 14.3336 11.034C13.7789 10.5487 13.5016 10.02 13.5016 9.448C13.5016 8.876 13.5969 8.382 13.7876 7.966C13.0423 8.55533 12.6696 9.71667 12.6696 11.45C12.6696 12.282 12.8429 13.0793 13.1896 13.842C13.5363 14.5873 14.0823 14.96 14.8276 14.96C15.5729 14.96 16.1536 14.648 16.5696 14.024C16.9856 13.3827 17.2283 12.6027 17.2976 11.684ZM15.6856 7.368C15.4083 7.368 15.1916 7.498 15.0356 7.758C14.8796 8.00067 14.8016 8.26933 14.8016 8.564C14.8016 9.20533 15.0183 9.72533 15.4516 10.124C15.9023 10.5227 16.4223 10.722 17.0116 10.722H17.3236C17.2889 9.87267 17.1416 9.10133 16.8816 8.408C16.6389 7.71467 16.2403 7.368 15.6856 7.368ZM28.4583 10.358C29.1516 10.1327 29.6283 9.942 29.8883 9.786C30.1656 9.61267 30.3736 9.48267 30.5123 9.396L30.8243 9.214C30.911 9.162 30.9803 9.136 31.0323 9.136C31.171 9.136 31.2403 9.214 31.2403 9.37C31.2403 9.526 30.9716 9.80333 30.4343 10.202C29.897 10.5833 29.2296 10.93 28.4323 11.242C28.311 12.698 27.8516 13.8767 27.0543 14.778C26.257 15.6793 25.1216 16.13 23.6483 16.13C22.5736 16.13 21.7503 15.7053 21.1783 14.856C20.6063 13.9893 20.3203 12.984 20.3203 11.84C20.3203 10.6787 20.6583 9.58667 21.3343 8.564C22.0276 7.54133 22.9116 7.03 23.9863 7.03C24.4716 6.68333 25.0436 6.51 25.7023 6.51C26.3783 6.51 27.0023 6.86533 27.5743 7.576C28.1463 8.28667 28.441 9.214 28.4583 10.358ZM26.7683 11.684L25.8323 11.736C25.035 11.736 24.359 11.502 23.8043 11.034C23.2496 10.5487 22.9723 10.02 22.9723 9.448C22.9723 8.876 23.0676 8.382 23.2583 7.966C22.513 8.55533 22.1403 9.71667 22.1403 11.45C22.1403 12.282 22.3136 13.0793 22.6603 13.842C23.007 14.5873 23.553 14.96 24.2983 14.96C25.0436 14.96 25.6243 14.648 26.0403 14.024C26.4563 13.3827 26.699 12.6027 26.7683 11.684ZM25.1563 7.368C24.879 7.368 24.6623 7.498 24.5063 7.758C24.3503 8.00067 24.2723 8.26933 24.2723 8.564C24.2723 9.20533 24.489 9.72533 24.9223 10.124C25.373 10.5227 25.893 10.722 26.4823 10.722H26.7943C26.7596 9.87267 26.6123 9.10133 26.3523 8.408C26.1096 7.71467 25.711 7.368 25.1563 7.368ZM38.163 16.91L38.865 16.832C39.0037 16.832 39.073 16.9013 39.073 17.04C39.073 17.2827 38.9083 17.4647 38.579 17.586C38.2497 17.7073 37.877 17.768 37.461 17.768C36.681 17.768 36.0223 17.456 35.485 16.832C34.965 16.208 34.237 15.0553 33.301 13.374C33.0757 13.01 32.963 12.7327 32.963 12.542C32.963 12.282 33.327 11.9787 34.055 11.632C35.2337 11.0253 35.823 10.2627 35.823 9.344C35.823 9.084 35.7277 8.86733 35.537 8.694C35.3637 8.50333 35.1297 8.408 34.835 8.408C34.419 8.408 33.925 8.902 33.353 9.89C32.781 10.8607 32.391 11.7793 32.183 12.646C31.9923 13.4953 31.897 14.414 31.897 15.402C31.897 15.8873 31.7583 16.13 31.481 16.13C31.0823 16.13 30.701 16.078 30.337 15.974C29.973 15.8527 29.791 15.7053 29.791 15.532C29.791 15.3413 29.8603 14.518 29.999 13.062C30.1377 11.5887 30.2157 10.5313 30.233 9.89C30.3023 6.354 30.5103 3.65 30.857 1.778C30.909 1.622 31.143 1.35333 31.559 0.972C31.9923 0.590666 32.339 0.399999 32.599 0.399999C32.859 0.399999 32.9803 0.729333 32.963 1.388C32.963 2.02933 32.8243 3.416 32.547 5.548C32.2697 7.68 32.0963 9.63 32.027 11.398C32.339 10.2887 32.833 9.24 33.509 8.252C34.2023 7.264 34.8957 6.77 35.589 6.77C36.7677 6.77 37.357 7.342 37.357 8.486C37.357 9.24867 37.1317 9.942 36.681 10.566C36.2303 11.1727 35.6237 11.6667 34.861 12.048C34.705 12.1173 34.627 12.1953 34.627 12.282C34.627 12.3687 34.653 12.4553 34.705 12.542C35.797 14.466 36.7243 15.818 37.487 16.598C37.695 16.806 37.9203 16.91 38.163 16.91ZM39.6651 3.286C39.6651 2.974 39.8298 2.70533 40.1591 2.48C40.4885 2.25467 40.7831 2.142 41.0431 2.142C41.5111 2.142 41.7451 2.41067 41.7451 2.948C41.7451 3.48533 41.6065 3.95333 41.3291 4.352C41.0518 4.73333 40.6618 4.924 40.1591 4.924C39.8298 4.924 39.6651 4.378 39.6651 3.286ZM40.4191 16.13C39.7431 16.13 39.2318 15.9913 38.8851 15.714C38.7638 15.5927 38.7031 15.1593 38.7031 14.414C38.7031 13.6687 38.7551 12.4293 38.8591 10.696C38.9805 8.94533 39.0845 8.00067 39.1711 7.862C39.2578 7.72333 39.5265 7.46333 39.9771 7.082C40.4278 6.70067 40.7745 6.51 41.0171 6.51C41.2771 6.51 41.4071 6.83933 41.4071 7.498C41.4071 7.67133 41.3551 8.00933 41.2511 8.512C41.1645 9.01467 41.0605 9.37867 40.9391 9.604C40.7138 10.176 40.6011 11.6753 40.6011 14.102C40.6011 14.57 40.6531 14.804 40.7571 14.804C41.0518 14.7867 41.4591 14.4227 41.9791 13.712C42.4991 12.984 43.0105 12.0567 43.5131 10.93C44.0331 9.80333 44.3451 9.24 44.4491 9.24C44.5705 9.24 44.6311 9.30933 44.6311 9.448C44.6311 9.93333 44.3798 10.7047 43.8771 11.762C42.5078 14.674 41.3551 16.13 40.4191 16.13ZM46.42 16.13C45.4494 16.13 44.678 15.766 44.106 15.038C43.534 14.2927 43.248 13.452 43.248 12.516C43.248 10.6267 43.6467 9.19667 44.444 8.226C45.2414 7.25533 46.2727 6.77 47.538 6.77C48.1274 6.77 48.6127 6.93467 48.994 7.264C49.3754 7.576 49.566 8.00933 49.566 8.564C49.566 9.604 49.124 10.4793 48.24 11.19C47.3734 11.8833 46.3074 12.2473 45.042 12.282C45.1114 12.958 45.3367 13.5473 45.718 14.05C46.1167 14.5353 46.576 14.778 47.096 14.778C47.616 14.778 48.084 14.6567 48.5 14.414C48.916 14.1713 49.2974 13.8247 49.644 13.374C50.372 12.4207 50.996 11.3373 51.516 10.124C51.6547 9.812 51.7587 9.58667 51.828 9.448C51.9147 9.30933 52.0014 9.24 52.088 9.24C52.192 9.24 52.244 9.30933 52.244 9.448C52.244 10.3147 51.7154 11.6147 50.658 13.348C49.514 15.2027 48.1014 16.13 46.42 16.13ZM45.042 11.658C46.0647 11.4847 46.81 11.1553 47.278 10.67C47.7634 10.1847 48.006 9.552 48.006 8.772C48.006 7.992 47.7547 7.602 47.252 7.602C46.6454 7.602 46.134 8.02667 45.718 8.876C45.302 9.708 45.0767 10.6353 45.042 11.658Z" fill="#CBCBCB"/>
</svg>

<svg xmlns="http://www.w3.org/2000/svg" fill="none" width="53" height="18" viewBox="0 0 53 18"><path d="M10.795 11.71c.121-.173.294-.477.52-.91.554-.988.884-1.482.988-1.482.121 0 .182.07.182.208 0 .85-.442 1.924-1.326 3.224-1.595 2.34-3.718 3.51-6.37 3.51-.746 0-1.43-.173-2.054-.52-.624-.347-1.118-.789-1.482-1.326C.507 13.322.135 12.178.135 10.982c0-3.016.78-5.443 2.34-7.28C4.052 1.847 5.915.92 8.065.92c.814 0 1.482.243 2.002.728.52.468.78 1.066.78 1.794s-.182 1.404-.546 2.028c-.364.624-.806.936-1.326.936-.503 0-.754-.139-.754-.416 0-.312.164-.667.494-1.066.346-.399.52-.797.52-1.196 0-1.23-.659-1.846-1.976-1.846-1.3 0-2.479.875-3.536 2.626-1.058 1.75-1.586 3.553-1.586 5.408 0 1.283.364 2.427 1.092 3.432.728.988 1.75 1.482 3.068 1.482 1.56 0 3.06-1.04 4.498-3.12Zm8.193-1.352c.693-.225 1.17-.416 1.43-.572l.624-.39.312-.182a.445.445 0 0 1 .208-.078c.138 0 .208.078.208.234 0 .156-.27.433-.806.832-.538.381-1.205.728-2.002 1.04-.122 1.456-.581 2.635-1.378 3.536-.798.901-1.933 1.352-3.406 1.352-1.075 0-1.898-.425-2.47-1.274-.572-.867-.858-1.872-.858-3.016 0-1.161.338-2.253 1.014-3.276.693-1.023 1.577-1.534 2.652-1.534.485-.347 1.057-.52 1.716-.52.676 0 1.3.355 1.872 1.066.572.71.866 1.638.884 2.782Zm-1.69 1.326-.936.052c-.798 0-1.474-.234-2.028-.702-.555-.485-.832-1.014-.832-1.586 0-.572.095-1.066.286-1.482-.746.59-1.118 1.75-1.118 3.484 0 .832.173 1.63.52 2.392.346.745.892 1.118 1.638 1.118.745 0 1.326-.312 1.742-.936.416-.641.658-1.421.728-2.34Zm-1.612-4.316c-.278 0-.494.13-.65.39a1.46 1.46 0 0 0-.234.806c0 .641.216 1.161.65 1.56.45.399.97.598 1.56.598h.312c-.035-.85-.182-1.62-.442-2.314-.243-.693-.642-1.04-1.196-1.04Zm12.772 2.99c.694-.225 1.17-.416 1.43-.572l.624-.39.312-.182a.445.445 0 0 1 .208-.078c.139 0 .208.078.208.234 0 .156-.268.433-.806.832-.537.381-1.204.728-2.002 1.04-.121 1.456-.58 2.635-1.378 3.536-.797.901-1.932 1.352-3.406 1.352-1.074 0-1.898-.425-2.47-1.274-.572-.867-.858-1.872-.858-3.016 0-1.161.338-2.253 1.014-3.276.694-1.023 1.578-1.534 2.652-1.534.486-.347 1.058-.52 1.716-.52.676 0 1.3.355 1.872 1.066.572.71.867 1.638.884 2.782Zm-1.69 1.326-.936.052c-.797 0-1.473-.234-2.028-.702-.554-.485-.832-1.014-.832-1.586 0-.572.096-1.066.286-1.482-.745.59-1.118 1.75-1.118 3.484 0 .832.174 1.63.52 2.392.347.745.893 1.118 1.638 1.118.746 0 1.326-.312 1.742-.936.416-.641.659-1.421.728-2.34Zm-1.612-4.316c-.277 0-.494.13-.65.39a1.46 1.46 0 0 0-.234.806c0 .641.217 1.161.65 1.56.451.399.971.598 1.56.598h.312c-.034-.85-.182-1.62-.442-2.314-.242-.693-.641-1.04-1.196-1.04Zm13.007 9.542.702-.078c.139 0 .208.07.208.208 0 .243-.165.425-.494.546-.33.121-.702.182-1.118.182-.78 0-1.439-.312-1.976-.936-.52-.624-1.248-1.777-2.184-3.458-.225-.364-.338-.641-.338-.832 0-.26.364-.563 1.092-.91 1.179-.607 1.768-1.37 1.768-2.288a.842.842 0 0 0-.286-.65c-.173-.19-.407-.286-.702-.286-.416 0-.91.494-1.482 1.482-.572.97-.962 1.89-1.17 2.756a12.57 12.57 0 0 0-.286 2.756c0 .485-.139.728-.416.728-.399 0-.78-.052-1.144-.156-.364-.121-.546-.269-.546-.442 0-.19.07-1.014.208-2.47.139-1.473.217-2.53.234-3.172.07-3.536.277-6.24.624-8.112.052-.156.286-.425.702-.806.433-.381.78-.572 1.04-.572s.381.33.364.988c0 .641-.139 2.028-.416 4.16a65.595 65.595 0 0 0-.52 5.85c.312-1.11.806-2.158 1.482-3.146.693-.988 1.387-1.482 2.08-1.482 1.179 0 1.768.572 1.768 1.716a3.47 3.47 0 0 1-.676 2.08c-.45.607-1.057 1.1-1.82 1.482-.156.07-.234.147-.234.234 0 .087.026.173.078.26 1.092 1.924 2.02 3.276 2.782 4.056.208.208.433.312.676.312Zm1.502-13.624c0-.312.165-.58.494-.806.33-.225.624-.338.884-.338.468 0 .702.269.702.806s-.139 1.005-.416 1.404c-.277.381-.667.572-1.17.572-.33 0-.494-.546-.494-1.638Zm.754 12.844c-.676 0-1.187-.139-1.534-.416-.121-.121-.182-.555-.182-1.3s.052-1.985.156-3.718c.121-1.75.225-2.695.312-2.834.087-.139.355-.399.806-.78.45-.381.798-.572 1.04-.572.26 0 .39.33.39.988 0 .173-.052.511-.156 1.014-.087.503-.19.867-.312 1.092-.225.572-.338 2.071-.338 4.498 0 .468.052.702.156.702.295-.017.702-.381 1.222-1.092.52-.728 1.032-1.655 1.534-2.782.52-1.127.832-1.69.936-1.69.122 0 .182.07.182.208 0 .485-.251 1.257-.754 2.314-1.37 2.912-2.522 4.368-3.458 4.368Zm6.001 0c-.97 0-1.742-.364-2.314-1.092a4.036 4.036 0 0 1-.858-2.522c0-1.89.399-3.32 1.196-4.29.797-.97 1.829-1.456 3.094-1.456.59 0 1.075.165 1.456.494.381.312.572.745.572 1.3 0 1.04-.442 1.915-1.326 2.626-.867.693-1.933 1.057-3.198 1.092.07.676.295 1.265.676 1.768.399.485.858.728 1.378.728.52 0 .988-.121 1.404-.364.416-.243.797-.59 1.144-1.04a15.174 15.174 0 0 0 1.872-3.25c.139-.312.243-.537.312-.676.087-.139.173-.208.26-.208.104 0 .156.07.156.208 0 .867-.529 2.167-1.586 3.9-1.144 1.855-2.557 2.782-4.238 2.782Zm-1.378-4.472c1.023-.173 1.768-.503 2.236-.988.485-.485.728-1.118.728-1.898 0-.78-.251-1.17-.754-1.17-.607 0-1.118.425-1.534 1.274-.416.832-.641 1.76-.676 2.782Z" fill="#CBCBCB"/></svg>
